Costumes/building-h.svg

<svg version="1.1" width="66" height="317" viewBox="-1 -1 66 317" xmlns="http://www.w3.org/2000/svg" xmlns:xlink="http://www.w3.org/1999/xlink">
  <!-- Exported by Scratch - http://scratch.mit.edu/ -->
  <g id="ID0.6255192831158638" transform="matrix(1, 0, 0, 1, -47, 0)">
    <g id="ID0.749677746091038">
      <path id="ID0.8822009218856692" fill="#40B4E5" d="M 207.800 44.700 L 272.200 102.400 L 272.200 360 L 207.800 360 L 207.800 44.700 " transform="matrix(1, 0, 0, 1, -160, -44)"/>
    </g>
    <g id="ID0.1934380605816841">
      <path id="ID0.8519445820711553" fill="#79CEF3" d="M 222.600 93.100 L 226 93.100 L 226 100.100 L 222.600 100.100 L 222.600 93.100 Z " transform="matrix(1, 0, 0, 1, -160, -44)"/>
    </g>
    <g id="ID0.8770811050198972">
      <path id="ID0.3774046045728028" fill="#79CEF3" d="M 222.600 105.300 L 226 105.300 L 226 112.300 L 222.600 112.300 L 222.600 105.300 Z " transform="matrix(1, 0, 0, 1, -160, -44)"/>
    </g>
    <g id="ID0.08548708213493228">
      <path id="ID0.984991307836026" fill="#79CEF3" d="M 222.600 116.200 L 226 116.200 L 226 123.200 L 222.600 123.200 L 222.600 116.200 Z " transform="matrix(1, 0, 0, 1, -160, -44)"/>
    </g>
    <g id="ID0.3786897473037243">
      <path id="ID0.07256629131734371" fill="#79CEF3" d="M 222.600 127.800 L 226 127.800 L 226 134.800 L 222.600 134.800 L 222.600 127.800 Z " transform="matrix(1, 0, 0, 1, -160, -44)"/>
    </g>
    <g id="ID0.6893740063533187">
      <path id="ID0.35145694902166724" fill="#79CEF3" d="M 222.600 140.600 L 226 140.600 L 226 147.600 L 222.600 147.600 L 222.600 140.600 Z " transform="matrix(1, 0, 0, 1, -160, -44)"/>
    </g>
    <g id="ID0.22799578262493014">
      <path id="ID0.7996567212976515" fill="#79CEF3" d="M 215.300 147.600 L 218.700 147.600 L 218.700 154.600 L 215.300 154.600 L 215.300 147.600 Z " transform="matrix(1, 0, 0, 1, -160, -44)"/>
    </g>
    <g id="ID0.6957329851575196">
      <path id="ID0.39123781491070986" fill="#79CEF3" d="M 215.300 134.600 L 218.700 134.600 L 218.700 141.600 L 215.300 141.600 L 215.300 134.600 Z " transform="matrix(1, 0, 0, 1, -160, -44)"/>
    </g>
    <g id="ID0.9713733969256282">
      <path id="ID0.0164931146427989" fill="#79CEF3" d="M 215.300 121.600 L 218.700 121.600 L 218.700 128.600 L 215.300 128.600 L 215.300 121.600 Z " transform="matrix(1, 0, 0, 1, -160, -44)"/>
    </g>
    <g id="ID0.6627152417786419">
      <path id="ID0.4181095836684108" fill="#79CEF3" d="M 215.300 111 L 218.700 111 L 218.700 118 L 215.300 118 L 215.300 111 Z " transform="matrix(1, 0, 0, 1, -160, -44)"/>
    </g>
    <g id="ID0.7135141519829631">
      <path id="ID0.734325461089611" fill="#79CEF3" d="M 215.300 183.300 L 218.700 183.300 L 218.700 190.300 L 215.300 190.300 L 215.300 183.300 Z " transform="matrix(1, 0, 0, 1, -160, -44)"/>
    </g>
    <g id="ID0.09856609161943197">
      <path id="ID0.6197486403398216" fill="#79CEF3" d="M 215.300 170.300 L 218.700 170.300 L 218.700 177.300 L 215.300 177.300 L 215.300 170.300 Z " transform="matrix(1, 0, 0, 1, -160, -44)"/>
    </g>
    <g id="ID0.2667376082390547">
      <path id="ID0.484412822406739" fill="#79CEF3" d="M 215.300 159.700 L 218.700 159.700 L 218.700 166.700 L 215.300 166.700 L 215.300 159.700 Z " transform="matrix(1, 0, 0, 1, -160, -44)"/>
    </g>
    <g id="ID0.005636660847812891">
      <path id="ID0.5756476982496679" fill="#79CEF3" d="M 215.300 99.800 L 218.700 99.800 L 218.700 106.800 L 215.300 106.800 L 215.300 99.800 Z " transform="matrix(1, 0, 0, 1, -160, -44)"/>
    </g>
    <g id="ID0.2169018774293363">
      <path id="ID0.010979591403156519" fill="#79CEF3" d="M 249.600 108.700 L 253 108.700 L 253 115.700 L 249.600 115.700 L 249.600 108.700 Z " transform="matrix(1, 0, 0, 1, -160, -44)"/>
    </g>
    <g id="ID0.017283457797020674">
      <path id="ID0.2928002099506557" fill="#79CEF3" d="M 249.600 120.900 L 253 120.900 L 253 127.900 L 249.600 127.900 L 249.600 120.900 Z " transform="matrix(1, 0, 0, 1, -160, -44)"/>
    </g>
    <g id="ID0.20128349214792252">
      <path id="ID0.49594935262575746" fill="#79CEF3" d="M 249.600 131.800 L 253 131.800 L 253 138.800 L 249.600 138.800 L 249.600 131.800 Z " transform="matrix(1, 0, 0, 1, -160, -44)"/>
    </g>
    <g id="ID0.3320856266655028">
      <path id="ID0.8887500474229455" fill="#79CEF3" d="M 249.600 143.400 L 253 143.400 L 253 150.400 L 249.600 150.400 L 249.600 143.400 Z " transform="matrix(1, 0, 0, 1, -160, -44)"/>
    </g>
    <g id="ID0.7358889901079237">
      <path id="ID0.29046787042170763" fill="#79CEF3" d="M 249.600 156.300 L 253 156.300 L 253 163.300 L 249.600 163.300 L 249.600 156.300 Z " transform="matrix(1, 0, 0, 1, -160, -44)"/>
    </g>
    <g id="ID0.258670455776155">
      <path id="ID0.3658346915617585" fill="#79CEF3" d="M 242.300 163.300 L 245.700 163.300 L 245.700 170.300 L 242.300 170.300 L 242.300 163.300 Z " transform="matrix(1, 0, 0, 1, -160, -44)"/>
    </g>
    <g id="ID0.13409371953457594">
      <path id="ID0.9808567380532622" fill="#79CEF3" d="M 242.300 150.300 L 245.700 150.300 L 245.700 157.300 L 242.300 157.300 L 242.300 150.300 Z " transform="matrix(1, 0, 0, 1, -160, -44)"/>
    </g>
    <g id="ID0.6372847510501742">
      <path id="ID0.04068801132962108" fill="#79CEF3" d="M 242.300 137.200 L 245.700 137.200 L 245.700 144.200 L 242.300 144.200 L 242.300 137.200 Z " transform="matrix(1, 0, 0, 1, -160, -44)"/>
    </g>
    <g id="ID0.9189301668666303">
      <path id="ID0.8278863341547549" fill="#79CEF3" d="M 242.300 126.600 L 245.700 126.600 L 245.700 133.600 L 242.300 133.600 L 242.300 126.600 Z " transform="matrix(1, 0, 0, 1, -160, -44)"/>
    </g>
    <g id="ID0.7974382508546114">
      <path id="ID0.8685166020877659" fill="#79CEF3" d="M 242.300 115.400 L 245.700 115.400 L 245.700 122.400 L 242.300 122.400 L 242.300 115.400 Z " transform="matrix(1, 0, 0, 1, -160, -44)"/>
    </g>
    <g id="ID0.22899904800578952">
      <path id="ID0.8395332912914455" fill="#79CEF3" d="M 256.400 163.300 L 259.800 163.300 L 259.800 170.300 L 256.400 170.300 L 256.400 163.300 Z " transform="matrix(1, 0, 0, 1, -160, -44)"/>
    </g>
    <g id="ID0.9072330174967647">
      <path id="ID0.3369176466949284" fill="#79CEF3" d="M 256.400 150.300 L 259.800 150.300 L 259.800 157.300 L 256.400 157.300 L 256.400 150.300 Z " transform="matrix(1, 0, 0, 1, -160, -44)"/>
    </g>
    <g id="ID0.4554497553035617">
      <path id="ID0.16102742170915008" fill="#79CEF3" d="M 256.400 137.200 L 259.800 137.200 L 259.800 144.200 L 256.400 144.200 L 256.400 137.200 Z " transform="matrix(1, 0, 0, 1, -160, -44)"/>
    </g>
    <g id="ID0.05516290618106723">
      <path id="ID0.01117396866902709" fill="#79CEF3" d="M 256.400 126.600 L 259.800 126.600 L 259.800 133.600 L 256.400 133.600 L 256.400 126.600 Z " transform="matrix(1, 0, 0, 1, -160, -44)"/>
    </g>
    <g id="ID0.4361258391290903">
      <path id="ID0.26061275601387024" fill="#79CEF3" d="M 256.400 115.400 L 259.800 115.400 L 259.800 122.400 L 256.400 122.400 L 256.400 115.400 Z " transform="matrix(1, 0, 0, 1, -160, -44)"/>
    </g>
    <g id="ID0.35133658070117235">
      <path id="ID0.5177212366834283" fill="#79CEF3" d="M 236.100 134.700 L 239.500 134.700 L 239.500 141.700 L 236.100 141.700 L 236.100 134.700 Z " transform="matrix(1, 0, 0, 1, -160, -44)"/>
    </g>
    <g id="ID0.38100095838308334">
      <path id="ID0.641736913472414" fill="#79CEF3" d="M 236.100 146.900 L 239.500 146.900 L 239.500 153.900 L 236.100 153.900 L 236.100 146.900 Z " transform="matrix(1, 0, 0, 1, -160, -44)"/>
    </g>
    <g id="ID0.7599150105379522">
      <path id="ID0.7106195180676877" fill="#79CEF3" d="M 236.100 157.900 L 239.500 157.900 L 239.500 164.900 L 236.100 164.900 L 236.100 157.900 Z " transform="matrix(1, 0, 0, 1, -160, -44)"/>
    </g>
    <g id="ID0.9702543159946799">
      <path id="ID0.9073407235555351" fill="#79CEF3" d="M 236.100 182.300 L 239.500 182.300 L 239.500 189.300 L 236.100 189.300 L 236.100 182.300 Z " transform="matrix(1, 0, 0, 1, -160, -44)"/>
    </g>
    <g id="ID0.09048580471426249">
      <path id="ID0.2738473634235561" fill="#79CEF3" d="M 229.100 189.300 L 232.500 189.300 L 232.500 196.300 L 229.100 196.300 L 229.100 189.300 Z " transform="matrix(1, 0, 0, 1, -160, -44)"/>
    </g>
    <g id="ID0.5440969518385828">
      <path id="ID0.9872177485376596" fill="#79CEF3" d="M 229.100 163.300 L 232.500 163.300 L 232.500 170.300 L 229.100 170.300 L 229.100 163.300 Z " transform="matrix(1, 0, 0, 1, -160, -44)"/>
    </g>
    <g id="ID0.12052102340385318">
      <path id="ID0.9419338949956" fill="#79CEF3" d="M 229.100 152.700 L 232.500 152.700 L 232.500 159.700 L 229.100 159.700 L 229.100 152.700 Z " transform="matrix(1, 0, 0, 1, -160, -44)"/>
    </g>
  </g>
</svg>

<?xml version="1.0" encoding="UTF-8" standalone="no"?>
<svg
   version="1.1"
   width="64.400002"
   height="315.29999"
   viewBox="-1 -1 64.400002 315.29999"
   id="svg75"
   sodipodi:docname="building-h.svg"
   xmlns:inkscape="http://www.inkscape.org/namespaces/inkscape"
   xmlns:sodipodi="http://sodipodi.sourceforge.net/DTD/sodipodi-0.dtd"
   xmlns="http://www.w3.org/2000/svg"
   xmlns:svg="http://www.w3.org/2000/svg">
  <defs
     id="defs79" />
  <sodipodi:namedview
     id="namedview77"
     pagecolor="#ffffff"
     bordercolor="#000000"
     borderopacity="0.25"
     inkscape:showpageshadow="2"
     inkscape:pageopacity="0.0"
     inkscape:pagecheckerboard="0"
     inkscape:deskcolor="#d1d1d1" />
  <!-- Exported by Scratch - http://scratch.mit.edu/ -->
  <g
     id="ID0.6255192831158638"
     transform="translate(-48.8,-1.7)">
    <g
       id="ID0.749677746091038">
      <path
         id="ID0.8822009218856692"
         fill="#40b4e5"
         d="m 207.8,44.7 64.4,57.7 V 360 H 207.8 V 44.7"
         transform="translate(-160,-44)" />
    </g>
    <g
       id="ID0.1934380605816841">
      <path
         id="ID0.8519445820711553"
         fill="#79cef3"
         d="m 222.6,93.1 h 3.4 v 7 h -3.4 z"
         transform="translate(-160,-44)" />
    </g>
    <g
       id="ID0.8770811050198972">
      <path
         id="ID0.3774046045728028"
         fill="#79cef3"
         d="m 222.6,105.3 h 3.4 v 7 h -3.4 z"
         transform="translate(-160,-44)" />
    </g>
    <g
       id="ID0.08548708213493228">
      <path
         id="ID0.984991307836026"
         fill="#79cef3"
         d="m 222.6,116.2 h 3.4 v 7 h -3.4 z"
         transform="translate(-160,-44)" />
    </g>
    <g
       id="ID0.3786897473037243">
      <path
         id="ID0.07256629131734371"
         fill="#79cef3"
         d="m 222.6,127.8 h 3.4 v 7 h -3.4 z"
         transform="translate(-160,-44)" />
    </g>
    <g
       id="ID0.6893740063533187">
      <path
         id="ID0.35145694902166724"
         fill="#79cef3"
         d="m 222.6,140.6 h 3.4 v 7 h -3.4 z"
         transform="translate(-160,-44)" />
    </g>
    <g
       id="ID0.22799578262493014">
      <path
         id="ID0.7996567212976515"
         fill="#79cef3"
         d="m 215.3,147.6 h 3.4 v 7 h -3.4 z"
         transform="translate(-160,-44)" />
    </g>
    <g
       id="ID0.6957329851575196">
      <path
         id="ID0.39123781491070986"
         fill="#79cef3"
         d="m 215.3,134.6 h 3.4 v 7 h -3.4 z"
         transform="translate(-160,-44)" />
    </g>
    <g
       id="ID0.9713733969256282">
      <path
         id="ID0.0164931146427989"
         fill="#79cef3"
         d="m 215.3,121.6 h 3.4 v 7 h -3.4 z"
         transform="translate(-160,-44)" />
    </g>
    <g
       id="ID0.6627152417786419">
      <path
         id="ID0.4181095836684108"
         fill="#79cef3"
         d="m 215.3,111 h 3.4 v 7 h -3.4 z"
         transform="translate(-160,-44)" />
    </g>
    <g
       id="ID0.7135141519829631">
      <path
         id="ID0.734325461089611"
         fill="#79cef3"
         d="m 215.3,183.3 h 3.4 v 7 h -3.4 z"
         transform="translate(-160,-44)" />
    </g>
    <g
       id="ID0.09856609161943197">
      <path
         id="ID0.6197486403398216"
         fill="#79cef3"
         d="m 215.3,170.3 h 3.4 v 7 h -3.4 z"
         transform="translate(-160,-44)" />
    </g>
    <g
       id="ID0.2667376082390547">
      <path
         id="ID0.484412822406739"
         fill="#79cef3"
         d="m 215.3,159.7 h 3.4 v 7 h -3.4 z"
         transform="translate(-160,-44)" />
    </g>
    <g
       id="ID0.005636660847812891">
      <path
         id="ID0.5756476982496679"
         fill="#79cef3"
         d="m 215.3,99.8 h 3.4 v 7 h -3.4 z"
         transform="translate(-160,-44)" />
    </g>
    <g
       id="ID0.2169018774293363">
      <path
         id="ID0.010979591403156519"
         fill="#79cef3"
         d="m 249.6,108.7 h 3.4 v 7 h -3.4 z"
         transform="translate(-160,-44)" />
    </g>
    <g
       id="ID0.017283457797020674">
      <path
         id="ID0.2928002099506557"
         fill="#79cef3"
         d="m 249.6,120.9 h 3.4 v 7 h -3.4 z"
         transform="translate(-160,-44)" />
    </g>
    <g
       id="ID0.20128349214792252">
      <path
         id="ID0.49594935262575746"
         fill="#79cef3"
         d="m 249.6,131.8 h 3.4 v 7 h -3.4 z"
         transform="translate(-160,-44)" />
    </g>
    <g
       id="ID0.3320856266655028">
      <path
         id="ID0.8887500474229455"
         fill="#79cef3"
         d="m 249.6,143.4 h 3.4 v 7 h -3.4 z"
         transform="translate(-160,-44)" />
    </g>
    <g
       id="ID0.7358889901079237">
      <path
         id="ID0.29046787042170763"
         fill="#79cef3"
         d="m 249.6,156.3 h 3.4 v 7 h -3.4 z"
         transform="translate(-160,-44)" />
    </g>
    <g
       id="ID0.258670455776155">
      <path
         id="ID0.3658346915617585"
         fill="#79cef3"
         d="m 242.3,163.3 h 3.4 v 7 h -3.4 z"
         transform="translate(-160,-44)" />
    </g>
    <g
       id="ID0.13409371953457594">
      <path
         id="ID0.9808567380532622"
         fill="#79cef3"
         d="m 242.3,150.3 h 3.4 v 7 h -3.4 z"
         transform="translate(-160,-44)" />
    </g>
    <g
       id="ID0.6372847510501742">
      <path
         id="ID0.04068801132962108"
         fill="#79cef3"
         d="m 242.3,137.2 h 3.4 v 7 h -3.4 z"
         transform="translate(-160,-44)" />
    </g>
    <g
       id="ID0.9189301668666303">
      <path
         id="ID0.8278863341547549"
         fill="#79cef3"
         d="m 242.3,126.6 h 3.4 v 7 h -3.4 z"
         transform="translate(-160,-44)" />
    </g>
    <g
       id="ID0.7974382508546114">
      <path
         id="ID0.8685166020877659"
         fill="#79cef3"
         d="m 242.3,115.4 h 3.4 v 7 h -3.4 z"
         transform="translate(-160,-44)" />
    </g>
    <g
       id="ID0.22899904800578952">
      <path
         id="ID0.8395332912914455"
         fill="#79cef3"
         d="m 256.4,163.3 h 3.4 v 7 h -3.4 z"
         transform="translate(-160,-44)" />
    </g>
    <g
       id="ID0.9072330174967647">
      <path
         id="ID0.3369176466949284"
         fill="#79cef3"
         d="m 256.4,150.3 h 3.4 v 7 h -3.4 z"
         transform="translate(-160,-44)" />
    </g>
    <g
       id="ID0.4554497553035617">
      <path
         id="ID0.16102742170915008"
         fill="#79cef3"
         d="m 256.4,137.2 h 3.4 v 7 h -3.4 z"
         transform="translate(-160,-44)" />
    </g>
    <g
       id="ID0.05516290618106723">
      <path
         id="ID0.01117396866902709"
         fill="#79cef3"
         d="m 256.4,126.6 h 3.4 v 7 h -3.4 z"
         transform="translate(-160,-44)" />
    </g>
    <g
       id="ID0.4361258391290903">
      <path
         id="ID0.26061275601387024"
         fill="#79cef3"
         d="m 256.4,115.4 h 3.4 v 7 h -3.4 z"
         transform="translate(-160,-44)" />
    </g>
    <g
       id="ID0.35133658070117235">
      <path
         id="ID0.5177212366834283"
         fill="#79cef3"
         d="m 236.1,134.7 h 3.4 v 7 h -3.4 z"
         transform="translate(-160,-44)" />
    </g>
    <g
       id="ID0.38100095838308334">
      <path
         id="ID0.641736913472414"
         fill="#79cef3"
         d="m 236.1,146.9 h 3.4 v 7 h -3.4 z"
         transform="translate(-160,-44)" />
    </g>
    <g
       id="ID0.7599150105379522">
      <path
         id="ID0.7106195180676877"
         fill="#79cef3"
         d="m 236.1,157.9 h 3.4 v 7 h -3.4 z"
         transform="translate(-160,-44)" />
    </g>
    <g
       id="ID0.9702543159946799">
      <path
         id="ID0.9073407235555351"
         fill="#79cef3"
         d="m 236.1,182.3 h 3.4 v 7 h -3.4 z"
         transform="translate(-160,-44)" />
    </g>
    <g
       id="ID0.09048580471426249">
      <path
         id="ID0.2738473634235561"
         fill="#79cef3"
         d="m 229.1,189.3 h 3.4 v 7 h -3.4 z"
         transform="translate(-160,-44)" />
    </g>
    <g
       id="ID0.5440969518385828">
      <path
         id="ID0.9872177485376596"
         fill="#79cef3"
         d="m 229.1,163.3 h 3.4 v 7 h -3.4 z"
         transform="translate(-160,-44)" />
    </g>
    <g
       id="ID0.12052102340385318">
      <path
         id="ID0.9419338949956"
         fill="#79cef3"
         d="m 229.1,152.7 h 3.4 v 7 h -3.4 z"
         transform="translate(-160,-44)" />
    </g>
  </g>
</svg>
